X:1
T:044 - A Linda História
T:Letra: Francis Harold Rowley (1854-1952)
T:Trad.: Salomão Luiz Ginsburg (1867-1927)
T:Música: Peter Philip Bilhorn (1861-1936)
M:3/4
L:1/8
Q:1/4=90
K:Eb
V:1
[M:3/4] G3/A/ | "Eb"B3B c3/B/ | e3 B3 B3/B/ | "Bb7"B3B c3/B/ | "Eb"B3z G3/A/ | B3B c3/B/ | e3 B3 B3/e/ | "Bb"d3B "Bb7"A3/F/ | "Eb"E3z || (3"Bb"Bc"(Bb7)"d | [M:4/4] "Eb"e4- e3/e/ "(Bb)"d3/c/ | "(Eb)"B4 G2 B3/B/ | "Bb7"B4- B3/B/ c3/B/ | "Eb"B4- Bz (3"Bb"Bc"(Bb7)"d | "Eb"e4- e3/e/ "(Bb)"d3/c/ | "(Eb)"B4 G2 B3/e/ | "Bb"d4- d3/B/ "Bb7"A3/F/ | "Eb"E2- "(Ab)"E2- "(Eb)"HE2 |]
w: 1.~Can-ta-reia lin-da his-tó-ria De Je-sus, o Sal-va-dor, Que dei-xou seu lar na gló-ria Pra sal-var o pe-ca-dor. Can_ta-rei_ a lin-dahis-tó-ria    De Je-sus,_ meu Sal-va-dor;_ Can_ta-rei_ a su-a gló-ria     Com os san_tos, com fer-vor.__
w: 2.~Eu per-di-mee e-lea-chou-me, Lon-ge, lon-ge do meu lar; A-bra-çou-meen-tão, to-mou-me Pra com e-leeu ir mo-rar.
w: 3.~Je-sus Cris-to de-pa-rou-me Quan-do fra-co, pra mor-rer; As fe-ri-das e-leun-tou-me E li-vrou-me com po-der.
w: 4.~Di-as ne-gros in-da te-nho,  So-fri-men-toe dis-sa-bor; Mas a E-leeu tu-doex-po-nho, E me li-vra com a-mor.
W: 
W: 
W: 1. Cantarei a linda história
W: De Jesus, o Salvador,
W: Que deixou seu lar na glória
W: Pra salvar o pecador.
W: 
W:    (Estribilho)
W:    Cantarei a linda história
W:    De Jesus, meu Salvador;
W:    Cantarei a sua glória 
W:    Com os santos, com fervor.
W: 
W: 2. Eu perdi-me e ele achou-me,
W: Longe, longe do meu lar;
W: Abraçou-me então, tomou-me
W: Pra com ele eu ir morar.
W:
W: 
W:  
W: 3. Jesus Cristo deparou-me
W: Quando fraco, pra morrer;
W: As feridas ele untou-me
W: E livrou-me com poder.
W: 
W: 4. Dias negros inda tenho, 
W: Sofrimento e dissabor;
W: Mas a Ele eu tudo exponho,
W: E me livra com amor.
W: 
W: 





